icons/svgs/signs-post-solid.svg

<svg width="24" height="24" viewBox="0 0 24 24" fill="none" xmlns="http://www.w3.org/2000/svg">
<path d="M10.75 3.25C10.75 2.58594 11.2969 2 12 2C12.6641 2 13.25 2.58594 13.25 3.25H19.2266C19.3828 3.25 19.5391 3.32812 19.6562 3.44531L21.5312 5.32031C21.7656 5.55469 21.7656 5.98438 21.5312 6.21875L19.6562 8.09375C19.5391 8.21094 19.3828 8.25 19.2266 8.25H4.5C3.79688 8.25 3.25 7.70312 3.25 7V4.5C3.25 3.83594 3.79688 3.25 4.5 3.25H10.75ZM20.75 12V14.5C20.75 15.2031 20.1641 15.75 19.5 15.75H4.73438C4.57812 15.75 4.42188 15.7109 4.30469 15.5938L2.42969 13.7188C2.19531 13.4844 2.19531 13.0547 2.42969 12.8203L4.30469 10.9453C4.42188 10.8281 4.57812 10.75 4.73438 10.75H10.75V9.5H13.25V10.75H19.5C20.1641 10.75 20.75 11.3359 20.75 12ZM13.25 20.75C13.25 21.4531 12.6641 22 12 22C11.2969 22 10.75 21.4531 10.75 20.75V17H13.25V20.75Z" fill="black"/>
</svg>

<svg xmlns="http://www.w3.org/2000/svg" width="24" height="24" fill="currentColor" class="icon-signs-post-solid" viewBox="0 0 24 24">
  <mask id="a" width="20" height="20" x="2" y="2" maskUnits="userSpaceOnUse" style="mask-type:alpha">
    <path d="M10.75 3.25c0-.664.547-1.25 1.25-1.25.664 0 1.25.586 1.25 1.25h5.977a.63.63 0 0 1 .43.195L21.53 5.32a.66.66 0 0 1 0 .899l-1.875 1.875a.6.6 0 0 1-.43.156H4.5c-.703 0-1.25-.547-1.25-1.25V4.5c0-.664.547-1.25 1.25-1.25zm10 8.75v2.5c0 .703-.586 1.25-1.25 1.25H4.734a.6.6 0 0 1-.43-.156L2.43 13.719a.66.66 0 0 1 0-.899l1.875-1.875a.63.63 0 0 1 .43-.195h6.015V9.5h2.5v1.25h6.25c.664 0 1.25.586 1.25 1.25m-7.5 8.75c0 .703-.586 1.25-1.25 1.25-.703 0-1.25-.547-1.25-1.25V17h2.5z"/>
  </mask>
  <g mask="url(#a)">
    <path d="M0 0h24v24H0z"/>
  </g>
</svg>
